img/ourServices/ourServis-icon3.svg

<svg width="49" height="48" viewBox="0 0 49 48" fill="none" xmlns="http://www.w3.org/2000/svg">
<rect x="0.642822" width="47.7143" height="48" rx="10" fill="#FCE7F6"/>
<path d="M12.2679 12C11.9227 12 11.6428 12.2612 11.6428 12.5834V34.9683C11.6428 35.2543 11.7615 35.5274 11.9706 35.7225C12.1616 35.9008 12.4132 36 12.6745 36H36.7321C37.0773 36 37.3571 35.7388 37.3571 35.4166C37.3571 35.0944 37.0773 34.8333 36.7321 34.8333H14.8929C13.7883 34.8333 12.8929 33.9378 12.8929 32.8333V12.5834C12.8929 12.2612 12.6131 12 12.2679 12Z" fill="#C11574"/>
<path fill-rule="evenodd" clip-rule="evenodd" d="M17.2682 27.1478C16.1371 27.1357 15.1473 27.855 14.8825 28.8814C14.6178 29.9078 15.1485 30.9687 16.1615 31.4383C17.1746 31.908 18.401 31.6616 19.1173 30.8445C19.8336 30.0274 19.8496 28.8567 19.1558 28.0229L22.081 24.0209C22.3349 24.1013 22.6005 24.1446 22.8686 24.1493C23.5535 24.1552 24.2085 23.8877 24.6687 23.4142L27.2689 25.141C27.2289 25.3096 27.2079 25.4817 27.2064 25.6544C27.2064 26.8916 28.281 27.8945 29.6065 27.8945C30.9321 27.8945 32.0067 26.8916 32.0067 25.6544C32.0048 25.1475 31.8148 24.6569 31.4692 24.2659L34.2569 20.2873C35.3919 20.6213 36.6165 20.1198 37.1216 19.1141C37.6268 18.1084 37.2565 16.909 36.2555 16.3084C35.2544 15.7077 33.9316 15.8913 33.161 16.7377C32.3905 17.5842 32.41 18.8322 33.2068 19.6573L30.4316 23.5775C30.1559 23.4799 29.8639 23.4286 29.569 23.4259C28.9137 23.4255 28.2864 23.6741 27.8314 24.1143L25.2187 22.4108C25.2317 22.2594 25.2317 22.1072 25.2187 21.9558C25.2696 20.9435 24.586 20.0254 23.5517 19.7169C22.5175 19.4085 21.3901 19.7865 20.8027 20.6388C20.2152 21.491 20.3139 22.6053 21.0434 23.3559L18.1557 27.3111C17.8741 27.2033 17.5726 27.1478 17.2682 27.1478ZM34.9569 17.1021C35.5921 17.1021 36.107 17.5827 36.107 18.1755C36.107 18.7683 35.5921 19.2489 34.9569 19.2489C34.3218 19.2489 33.8069 18.7683 33.8069 18.1755C33.8069 17.5827 34.3218 17.1021 34.9569 17.1021ZM30.7191 25.6544C30.7191 25.0615 30.2042 24.581 29.569 24.581C28.9339 24.581 28.4189 25.0615 28.4189 25.6544C28.4189 26.2472 28.9339 26.7278 29.569 26.7278C30.2042 26.7278 30.7191 26.2472 30.7191 25.6544ZM22.8685 20.8357C23.5037 20.8357 24.0186 21.3163 24.0186 21.9091C24.0186 22.5019 23.5037 22.9825 22.8685 22.9825C22.2333 22.9825 21.7184 22.5019 21.7184 21.9091C21.7184 21.3163 22.2333 20.8357 22.8685 20.8357ZM16.2035 29.7931C16.3799 30.1971 16.8008 30.4612 17.2682 30.4613C17.8937 30.4615 18.4047 29.995 18.4183 29.4113C18.4284 28.9751 18.1548 28.5766 17.7259 28.4031C17.297 28.2296 16.7983 28.3155 16.4642 28.6206C16.1301 28.9257 16.027 29.3892 16.2035 29.7931Z" fill="#C11574"/>
</svg>

<svg width="49" height="48" fill="none" xmlns="http://www.w3.org/2000/svg"><rect x=".643" width="47.714" height="48" rx="10" fill="#FCE7F6"/><path d="M12.268 12c-.345 0-.625.261-.625.583v22.385A1.031 1.031 0 0012.674 36h24.058c.345 0 .625-.261.625-.583 0-.323-.28-.584-.625-.584h-21.84a2 2 0 01-2-2v-20.25c0-.322-.279-.583-.624-.583z" fill="#C11574"/><path fill-rule="evenodd" clip-rule="evenodd" d="M17.268 27.148c-1.13-.012-2.12.707-2.386 1.733-.264 1.027.267 2.088 1.28 2.557 1.013.47 2.239.224 2.955-.593a2.147 2.147 0 00.039-2.822l2.925-4.002c.254.08.52.124.788.128a2.482 2.482 0 001.8-.735l2.6 1.727a2.31 2.31 0 00-.063.513c0 1.238 1.075 2.24 2.4 2.24 1.326 0 2.4-1.002 2.4-2.24a2.107 2.107 0 00-.537-1.388l2.788-3.979c1.135.334 2.36-.167 2.865-1.173.505-1.006.135-2.205-.867-2.806-1-.6-2.323-.417-3.094.43a2.107 2.107 0 00.046 2.92l-2.775 3.92a2.66 2.66 0 00-.863-.152 2.5 2.5 0 00-1.738.688l-2.612-1.703a2.659 2.659 0 000-.455c.05-1.012-.633-1.93-1.667-2.24-1.035-.308-2.162.07-2.75.923-.587.852-.488 1.966.241 2.717l-2.887 3.955a2.485 2.485 0 00-.888-.163zm17.689-10.046c.635 0 1.15.48 1.15 1.073s-.515 1.074-1.15 1.074c-.635 0-1.15-.48-1.15-1.073s.515-1.074 1.15-1.074zm-4.238 8.552c0-.593-.515-1.073-1.15-1.073-.635 0-1.15.48-1.15 1.073s.515 1.074 1.15 1.074c.635 0 1.15-.48 1.15-1.074zm-7.85-4.818c.635 0 1.15.48 1.15 1.073s-.515 1.074-1.15 1.074c-.636 0-1.15-.481-1.15-1.074 0-.593.514-1.073 1.15-1.073zm-6.666 8.957c.177.404.598.668 1.065.668.626 0 1.137-.466 1.15-1.05.01-.436-.263-.834-.692-1.008a1.212 1.212 0 00-1.262.218 1.022 1.022 0 00-.26 1.172z" fill="#C11574"/></svg>
